public/topics/8.svg

<svg width="250" height="250" viewBox="0 0 250 250" fill="none" xmlns="http://www.w3.org/2000/svg">
<rect width="250" height="250" rx="30" fill="#990033"/>
<path d="M146.4 128.8C154.533 132 161.067 136.267 166 141.6C170.933 146.933 173.4 153.067 173.4 160C173.4 162 172.933 164.533 172 167.6C171.2 170.533 170.067 173.067 168.6 175.2C159.8 188.8 144.267 195.6 122 195.6C110.4 195.6 100.333 193.267 91.8 188.6C83.2667 183.8 79 176.667 79 167.2C79 153.733 88.2667 142.2 106.8 132.6C89.4667 126.2 80.8 116.733 80.8 104.2C80.8 96.6 82.9333 90.2 87.2 85C91.4667 79.8 97.0667 75.9333 104 73.4C111.067 70.8667 118.733 69.6 127 69.6C133.133 69.6 139.4 71.0667 145.8 74C152.2 76.8 156.6 80.4667 159 85C161.4 90.0667 162.6 94.8 162.6 99.2C162.6 104.933 161.4 110.2 159 115C156.733 119.8 152.533 124.4 146.4 128.8ZM125.6 122.8C129.867 120 133.133 117.733 135.4 116C137.8 114.133 139.8 111.933 141.4 109.4C143.133 106.733 144 103.667 144 100.2C144 96.2 142.4 92.8667 139.2 90.2C136 87.5333 132.133 86.2 127.6 86.2C117.867 86.2 111.067 87.8667 107.2 91.2C103.467 94.5333 101.6 98.4667 101.6 103C101.6 106.6 102.8 109.667 105.2 112.2C107.6 114.6 110.267 116.533 113.2 118C116.267 119.333 120.4 120.933 125.6 122.8ZM152.2 158.6C152.2 156.333 150.733 153.933 147.8 151.4C145 148.867 141.667 146.667 137.8 144.8C133.933 142.8 130.667 141.467 128 140.8C123.467 142.667 118.467 145.667 113 149.8C107.533 153.8 104.2 156.733 103 158.6C101.667 160.467 100.733 162.067 100.2 163.4C99.8 164.6 99.6 166.067 99.6 167.8C99.6 169.8 100.8 171.733 103.2 173.6C105.6 175.333 108.467 176.733 111.8 177.8C115.133 178.867 118 179.4 120.4 179.4C129.867 179.4 137.533 177.533 143.4 173.8C149.267 169.933 152.2 164.867 152.2 158.6Z" fill="white"/>
</svg>

<svg xmlns="http://www.w3.org/2000/svg" width="250" height="250" fill="none" viewBox="0 0 250 250"><rect width="250" height="250" fill="#903" rx="30"/><path fill="#fff" d="M146.4 128.8q12.2 4.8 19.6 12.8t7.4 18.4q0 3-1.4 7.6-1.2 4.4-3.4 7.6-13.2 20.4-46.6 20.4-17.4 0-30.2-7Q79 181.4 79 167.2q0-20.2 27.8-34.6-26-9.6-26-28.4 0-11.4 6.4-19.2T104 73.4q10.6-3.8 23-3.8 9.2 0 18.8 4.4 9.6 4.2 13.2 11 3.6 7.6 3.6 14.2 0 8.6-3.6 15.8-3.4 7.2-12.6 13.8m-20.8-6q6.4-4.2 9.8-6.8 3.6-2.8 6-6.6 2.6-4 2.6-9.2 0-6-4.8-10t-11.6-4q-14.6 0-20.4 5-5.6 5-5.6 11.8 0 5.4 3.6 9.2 3.6 3.6 8 5.8 4.6 2 12.4 4.8m26.6 35.8q0-3.4-4.4-7.2-4.2-3.8-10-6.6-5.8-3-9.8-4-6.8 2.8-15 9-8.2 6-10 8.8-2 2.8-2.8 4.8-.6 1.8-.6 4.4 0 3 3.6 5.8 3.6 2.6 8.6 4.2t8.6 1.6q14.2 0 23-5.6 8.8-5.8 8.8-15.2"/></svg>
